!!!!SEGMENT: Ver2007-Tanto_tempore.krn
!!!id: Ver2007
!!!AGN: Motet
!!!SCT: Merritt (1960)
!!!voices: 4
!!!COM: Philippe Verdelot
!!!OTL: Tanto tempore
**kern	**kern	**kern	**kern
*part4	*part3	*part2	*part1
*staff4	*staff3	*staff2	*staff1
*I"Bassus	*I"Tenor	*I"Altus	*I"Superius
*I'B	*I'T	*I'A	*I'S
*clefF4	*clefGv2	*clefGv2	*clefGv2
*k[b-]	*k[b-]	*k[b-]	*k[b-]
*F:	*F:	*F:	*F:
*M2/1	*M2/1	*M2/1	*M2/1
*met(C|)	*met(C|)	*met(C|)	*met(C|)
!!section: Prima pars: Tanto tempore
!!!OMD: Prima pars: Tanto tempore
=1	=1	=1	=1
0r	0D	0r	0r
=2	=2	=2	=2
0GG	1D	0r	0r
.	[1G	.	.
=3	=3	=3	=3
1GG	2G]	0r	1r
.	2G	.	.
[1C	1G	.	[1G
=4	=4	=4	=4
2C]	0E	0r	1G]
2C	.	.	.
1C	.	.	1G
=5	=5	=5	=5
0AA	0E	0r	1.c
.	.	.	2c
=6	=6	=6	=6
1AA	1.F	1r	1c
[1BB-y	.	[1D	2r
.	2F	.	2f
=7	=7	=7	=7
2BB-]	1F	1D]	2d
2BB-y	.	.	2.f
1BB-y	2r	1D	.
.	.	.	4e
.	2F	.	4d
.	.	.	4c
=8	=8	=8	=8
2r	2G	1.G	2.B-y
2GG	2.B-y	.	.
.	.	.	4c
1BB-y	.	.	1d
.	4A	.	.
.	4G	2G	.
.	4F	.	.
=9	=9	=9	=9
1C	4E	1G	1c
.	4D	.	.
.	2E	.	.
[1D	2F	1r	2r
.	2D	.	2f
=10	=10	=10	=10
2D]	2.F	1D	2d
2D	.	.	2.f
.	4G	.	.
1D	2A	1F	.
.	.	.	4e
.	[2B-y	.	[2d
=11	=11	=11	=11
1E	2B-]	1G	2d]
.	4A	.	2c
.	4G	.	.
[1D	[1F	1A	2.d
.	.	.	8cL
.	.	.	8B-yJ
=12	=12	=12	=12
1D]	0F_	2r	2A
.	.	2d	1B-y
1r	.	2d	.
.	.	2d	4A
.	.	.	4G
=13	=13	=13	=13
1r	1F]	1c	1A
1E-X	1r	2B-y	[1G
.	.	[2c	.
=14	=14	=14	=14
2E-X	0r	4c]	2G]
.	.	4B-y	.
2E-i	.	4A	4F
.	.	4G	4E
1D	.	1A	1F
=15	=15	=15	=15
2BB-y	1r	2D	0G
2.C	.	2.E	.
.	1c	.	.
4BB-y	.	4F	.
4AA	.	[2G	.
4GG	.	.	.
=16	=16	=16	=16
1AA	2c	2G]	1r
.	2c	2F#i	.
1GG	1B-y	1G	2r
.	.	.	2d
=17	=17	=17	=17
1r	2A	2F	2f
.	2.G	2.B-y	2.e
1G	.	.	.
.	4F	4A	4d
.	4E	4G	[2d
.	4D	4F	.
=18	=18	=18	=18
2G	1E	1G	2d]
2G	.	.	2c#i
1F	2.D	1A	1d
.	4E	.	.
=19	=19	=19	=19
2D	2F	2B-y	1r
2.E	2.G	2.c	.
.	.	.	1e-X
4D	4F	4B-y	.
4C	[2F	[2B-y	.
4BB-y	.	.	.
=20	=20	=20	=20
1C	2F]	2B-]	2e-i
.	2E	2A	2e-i
1BB-y	1F	1B-y	1d
=21	=21	=21	=21
1E-X	2r	0G	2B-y
.	4C	.	2.c
.	4D	.	.
2E-i	4E	.	.
.	4F	.	4B-y
2E-i	[2G	.	4A
.	.	.	4G
=22	=22	=22	=22
1D	2G]	1d	1A
.	2F#i	.	.
2BB-y	4G	1r	2G
.	4Fny	.	.
[2C	4E	.	2G
.	4D	.	.
=23	=23	=23	=23
2C]	2C	1r	2A
2BB-y	2D	.	2B-y
1AA	2E	2r	1c
.	2F	2A	.
=24	=24	=24	=24
1GG	2G	2B-y	2r
.	2d	2B-y	2G
2r	2c	2A	2A
2G	2B-y	2G	2B-y
=25	=25	=25	=25
2F	2A	2A	2c
2E	2G	4B-y	4r
.	.	4c	4G
1D	2F	2d	2A
.	4E	2F	2B-y
.	4D	.	.
=26	=26	=26	=26
2r	2C	2G	1c
2F	2c	2A	.
2E-X	2c	2G	2r
2D	2B-y	2F	2f
=27	=27	=27	=27
1C	2c	2G	2e
.	2G	1c	2.g
2r	2A	.	.
.	.	.	4f
2G	2B-y	2B-y	4d
.	.	.	4e
=28	=28	=28	=28
2F	1c	2A	2f
2E	.	2G	1g
1D	1d	1A	.
.	.	.	2f#i
=29	=29	=29	=29
0GG	1.B-y	[0G	1g
.	.	.	2r
.	4A	.	2G
.	4G	.	.
=30	=30	=30	=30
2r	1B-y	1G]	1d
2GG	.	.	.
1D	1A	2r	[1d
.	.	2D	.
=31	=31	=31	=31
1D	0F	1A	1d]
2r	.	1A	1r
2D	.	.	.
=32	=32	=32	=32
1F	0r	2r	1r
.	.	2A	.
1E	.	1c	2r
.	.	.	2G
=33	=33	=33	=33
[0D	2r	2B-y	1d
.	2D	2.A	.
.	1A	.	1d
.	.	4G	.
.	.	4F	.
.	.	4E	.
=34	=34	=34	=34
0D]	1A	2F	2r
.	.	2D	2d
.	2r	[1A	1f
.	2A	.	.
=35	=35	=35	=35
1r	1c	1A]	1e
2r	1B-y	1r	1d
2D	.	.	.
=36	=36	=36	=36
1F	1A	0r	2.c
.	.	.	4d
1E	2r	.	4e
.	.	.	4f
.	2G	.	[2g
=37	=37	=37	=37
1D	1B-y	2r	2g]
.	.	2D	2.f
2r	1A	1F	.
.	.	.	4e
2AA	.	.	4c
.	.	.	4d
=38	=38	=38	=38
1C	1G	1E	4e
.	.	.	4f
.	.	.	1g
1BB-y	2r	1D	.
.	2D	.	[2f
=39	=39	=39	=39
0AA	1F	0A	2f]
.	.	.	4e
.	.	.	4d
.	1E	.	4c
.	.	.	4d
.	.	.	4e
.	.	.	4c
=40	=40	=40	=40
2r	1D	2r	0d
2A	.	2F	.
2B-y	1r	2G	.
2G	.	2B-y	.
=41	=41	=41	=41
2.B-y	1r	2.G	2r
.	.	.	2d
4A	.	4A	.
2G	2r	4B-y	2e
.	.	4c	.
2F	2A	[2d	2f
=42	=42	=42	=42
1E	2B-y	2d]	1g
.	2G	2c#i	.
1D	2.B-y	2.d	1f
.	4A	4cny	.
=43	=43	=43	=43
2r	2G	2B-y	2e
2A	2F	2A	1d
2B-y	1E-X	1G	.
2G	.	.	2c
=44	=44	=44	=44
2.B-y	1D	2F	2d
.	.	2f	2d
4A	.	.	.
2G	2r	2e	2e
2F	2A	[2d	2f
=45	=45	=45	=45
1E	2B-y	2d]	1g
.	2G	2c#i	.
1D	2.B-y	[1d	2f
.	.	.	[2g
.	4c	.	.
=46	=46	=46	=46
2r	1A	1d]	2g]
2D	.	.	2f#i
2E	[1G	2B-y	1g
2C	.	[2c	.
=47	=47	=47	=47
2.E	1G]	2c]	2r
.	.	2B-y	2G
4D	.	.	.
2C	2r	2A	2A
2BB-y	2D	2G	2B-y
=48	=48	=48	=48
1AA	2E	2r	1c
.	2F	2A	.
1GG	2G	2B-y	2r
.	2d	2B-y	2G
=49	=49	=49	=49
2r	2c	2A	2A
2G	2B-y	2G	2B-y
2F	2A	2A	2c
2E	2G	4B-y	4r
.	.	4c	4G
=50	=50	=50	=50
1D	2.F	2d	2A
.	.	2F	2B-y
.	8EL	.	.
.	8DJ	.	.
2r	2C	2G	1c
2F	2c	2A	.
=51	=51	=51	=51
2E-X	2c	2G	2r
2D	2B-y	2F	2f
1C	2c	2G	2e
.	2G	[2c	[2g
=52	=52	=52	=52
2r	2A	2c]	4g]
.	.	.	4f
2G	2B-y	2B-y	4d
.	.	.	4e
2F	1c	2A	2f
2E	.	2G	[2g
=53	=53	=53	=53
1D	2.d	1A	2g]
.	.	.	2f#i
.	4c	.	.
4GG	1B-y	1G	2g
4AA	.	.	.
4BB-y	.	.	2d
4C	.	.	.
=54	=54	=54	=54
4D	1A	2.F	2.f
4E	.	.	.
2.F	.	.	.
.	.	4G	4e
.	1c	1A	4c
4E	.	.	4d
4C	.	.	4e
4D	.	.	4f
=55	=55	=55	=55
4E	1B-y	1G	2.g
4F	.	.	.
2.G	.	.	.
.	.	.	4f
.	1G	2B-y	2d
4F	.	.	.
2E	.	2c	[2g
=56	=56	=56	=56
1D	2A	1d	2g]
.	2B-y	.	2f
[1C	[1c	[1Gl	[1e
=57	=57	=57	=57
1C]	1c]	0G_	1e]
[1GGl	[1B-yl	.	[1dl
=58	=58	=58	=58
00GG]	00B-]	00G]	00d]
==	==	==	==
*-	*-	*-	*-
!!!system-decoration: [*]
!!!RDF**kern: i = editorial accidental
!!!RDF**kern: l = terminal long
!!!ENC: Benjamin Ory
!!!END: 2021/2/1
!!!EED: Benjamin Ory
!!!EEV: 2021/04/29
!!!YEC: Copyright 2021 Benjamin Ory, All Rights Reserved
!!!ONB: Translated from MusicXML on 2021/04/29
